lib/brands/logos/humana.svg

<svg xmlns="http://www.w3.org/2000/svg" fill="none" aria-hidden="true" viewBox="0 0 242 56"><g id="Humana"><path id="Vector" fill="#4E8416" d="M71.1788 15.6609C70.4063 15.6609 69.827 16.2402 69.827 17.0126V43.4681C67.896 43.8543 65.7718 44.2405 63.6476 44.2405C59.0131 44.2405 57.4683 42.5025 57.4683 37.4818V17.0126C57.4683 16.2402 56.8889 15.6609 56.3096 15.6609H49.3578V37.4818C49.3578 47.7164 54.7648 50.9992 63.4545 50.9992C70.4063 50.9992 77.3581 49.0681 77.9375 48.875V15.6609H71.1788ZM177.58 50.613C178.159 50.613 178.932 50.0337 178.932 49.2612V22.6127C180.863 22.2265 182.987 21.8402 185.111 21.8402C189.746 21.8402 191.29 23.5782 191.29 28.5989V49.2612C191.29 50.0337 191.87 50.613 192.449 50.613H199.401V28.5989C199.401 18.3643 193.994 15.0815 185.304 15.0815C178.352 15.0815 171.401 17.0126 170.821 17.2057V50.613H177.58ZM149.773 15.0815C140.697 15.0815 135.097 19.9092 135.097 30.53V35.7438C135.097 47.3302 141.276 51.1923 147.842 51.1923C151.125 51.1923 154.6 48.875 155.566 47.5233V49.6475C155.566 50.2268 156.145 50.8061 156.725 50.8061C156.725 50.8061 163.483 50.8061 163.676 50.8061V17.0126C163.869 17.0126 157.111 15.0815 149.773 15.0815ZM155.759 42.1163C154.214 43.4681 153.056 44.2405 149.773 44.2405C145.138 44.4336 143.207 41.537 143.207 35.5507V30.7231C143.207 23.9644 145.718 22.0333 149.773 22.0333C153.056 22.0333 154.987 22.2265 155.759 22.4196V42.1163ZM219.87 15.0815C210.794 15.0815 205.194 19.9092 205.194 30.53V35.7438C205.194 47.3302 211.373 51.1923 218.132 51.1923C221.415 51.1923 224.891 48.875 225.856 47.5233V49.6475C225.856 50.2268 226.436 50.8061 227.015 50.8061C227.015 50.8061 233.774 50.8061 233.967 50.8061V17.0126C233.967 17.0126 227.208 15.0815 219.87 15.0815ZM225.856 42.1163C224.312 43.4681 223.153 44.2405 219.87 44.2405C215.236 44.2405 213.305 41.537 213.305 35.5507V30.7231C213.305 23.7713 215.815 22.0333 219.87 22.0333C223.153 22.0333 225.084 22.2265 225.856 22.4196V42.1163ZM8.0332 50.613C9.19184 50.613 15.3712 50.613 15.3712 50.613C15.9505 50.613 16.5299 50.0337 16.5299 49.4543V30.1438H30.0472C32.3645 30.1438 33.9094 31.8817 33.9094 33.8128V49.4543C33.9094 50.0337 34.4887 50.613 35.068 50.613C35.068 50.613 42.0198 50.613 42.406 50.613C42.406 50.613 42.406 5.04005 42.406 4.65384H35.068C34.4887 4.65384 33.9094 5.23316 33.9094 5.81247V23.192H20.0058C18.0747 23.192 16.723 21.6471 16.723 19.9092V5.81247C16.5299 5.42626 16.1436 4.65384 15.3712 4.65384H8.0332C8.0332 5.04005 8.0332 50.613 8.0332 50.613ZM116.752 15.0815C112.89 15.0815 109.221 16.6264 107.483 17.785C104.972 15.854 101.496 15.0815 97.248 15.0815C90.8755 15.0815 85.4686 17.0126 84.6962 17.3988V50.8061H91.648C92.4204 50.8061 92.8066 50.2268 92.8066 49.4543V22.6127C94.5445 22.2265 95.8963 22.0333 97.0549 22.0333C101.883 22.0333 103.041 23.9644 103.041 28.792V49.4543C103.041 50.0337 103.427 50.8061 104.2 50.8061H109.993C110.765 50.8061 111.152 50.2268 111.152 49.4543V23.5782C112.503 22.6127 114.241 22.0333 115.979 22.0333C119.648 22.0333 121.193 23.7713 121.193 28.2127V49.4543C121.193 50.0337 121.579 50.8061 122.352 50.8061C122.352 50.8061 128.724 50.8061 129.304 50.8061V27.0541C129.497 18.1712 123.897 15.0815 116.752 15.0815Z"/></g></svg>

<svg xmlns="http://www.w3.org/2000/svg" fill="none" aria-hidden="true" viewBox="0 0 242 56"><path fill="#4E8416" d="M71.179 15.66a1.32 1.32 0 0 0-1.352 1.353v26.455c-1.931.386-4.055.772-6.18.772-4.634 0-6.179-1.738-6.179-6.758v-20.47c0-.772-.58-1.351-1.158-1.351h-6.952v21.82C49.358 47.717 54.765 51 63.455 51c6.951 0 13.903-1.93 14.483-2.124V15.661h-6.76ZM177.58 50.614c.579 0 1.352-.58 1.352-1.352V22.613c1.931-.386 4.055-.773 6.179-.773 4.635 0 6.179 1.738 6.179 6.759V49.26c0 .773.58 1.352 1.159 1.352h6.952V28.599c0-10.235-5.407-13.518-14.097-13.518-6.952 0-13.903 1.932-14.483 2.125v33.407h6.759Zm-27.807-35.532c-9.076 0-14.676 4.828-14.676 15.449v5.214c0 11.586 6.179 15.448 12.745 15.448 3.283 0 6.758-2.317 7.724-3.669v2.124c0 .58.579 1.16 1.159 1.16h6.951V17.012c.193 0-6.565-1.932-13.903-1.932Zm5.986 27.035c-1.545 1.352-2.703 2.124-5.986 2.124-4.635.194-6.566-2.703-6.566-8.69v-4.827c0-6.759 2.511-8.69 6.566-8.69 3.283 0 5.214.194 5.986.387v19.696Zm64.111-27.035c-9.076 0-14.676 4.828-14.676 15.449v5.214c0 11.586 6.179 15.448 12.938 15.448 3.283 0 6.759-2.317 7.724-3.669v2.124c0 .58.58 1.16 1.159 1.16h6.952V17.012s-6.759-1.932-14.097-1.932Zm5.986 27.035c-1.544 1.352-2.703 2.124-5.986 2.124-4.634 0-6.565-2.703-6.565-8.69v-4.827c0-6.952 2.51-8.69 6.565-8.69 3.283 0 5.214.194 5.986.387v19.696ZM8.033 50.613h7.338c.58 0 1.159-.58 1.159-1.159v-19.31h13.517c2.317 0 3.862 1.738 3.862 3.669v15.641c0 .58.58 1.159 1.159 1.159h7.338V4.653h-7.338c-.58 0-1.159.58-1.159 1.16v17.379H20.006c-1.931 0-3.283-1.545-3.283-3.283V5.812c-.193-.386-.58-1.158-1.352-1.158H8.033v45.959Zm108.719-35.532c-3.862 0-7.531 1.545-9.269 2.704-2.511-1.931-5.987-2.704-10.235-2.704-6.373 0-11.78 1.932-12.552 2.318v33.407h6.952c.772 0 1.159-.58 1.159-1.352V22.613c1.737-.386 3.09-.58 4.248-.58 4.828 0 5.986 1.931 5.986 6.759v20.662c0 .58.386 1.352 1.159 1.352h5.793c.772 0 1.159-.58 1.159-1.352V23.578a8.446 8.446 0 0 1 4.827-1.545c3.669 0 5.214 1.738 5.214 6.18v21.241c0 .58.386 1.352 1.159 1.352h6.952V27.054c.193-8.883-5.407-11.972-12.552-11.972Z"/></svg>
